component-icons/svg/maskedtextbox.svg

<svg id="Layer_1" data-name="Layer 1" xmlns="http://www.w3.org/2000/svg" viewBox="0 0 24 24">
  <defs>
    <style>
      .cls-1 {
        fill: gray;
      }
    </style>
  </defs>
  <title>maskedtextbox</title>
  <path class="cls-1" d="M11,13.58,12.42,15,14,13.41,15.58,15h0L17,13.58,15.41,12,17,10.41,15.59,9,14,10.59,12.41,9,11,10.41,12.59,12ZM0,5V19H24V5ZM22,17H2V7H22ZM4,13.58,5.42,15,7,13.41,8.59,15h0L10,13.58,8.42,12,10,10.41,8.59,9,7,10.59,5.41,9,4,10.41,5.59,12Z"/>
</svg>

<?xml version="1.0" encoding="utf-8"?>
<!-- Generator: Adobe Illustrator 24.2.3, SVG Export Plug-In . SVG Version: 6.00 Build 0)  -->
<svg version="1.1" id="Layer_1" xmlns="http://www.w3.org/2000/svg" xmlns:xlink="http://www.w3.org/1999/xlink" x="0px" y="0px"
	 width="24px" height="24px" viewBox="0 0 24 24" enable-background="new 0 0 24 24" xml:space="preserve">
<path d="M11,13.6l1.4,1.4l1.6-1.6l1.6,1.6l0,0l1.4-1.4L15.4,12l1.6-1.6L15.6,9L14,10.6L12.4,9L11,10.4l1.6,1.6L11,13.6z M0,5v14h24
	V5H0z M22,17H2V7h20V17z M4,13.6L5.4,15L7,13.4L8.6,15l0,0l1.4-1.4L8.4,12l1.6-1.6L8.6,9L7,10.6L5.4,9L4,10.4L5.6,12L4,13.6z"/>
</svg>
